X:1
T:Title
L:1/8
M:2/4
K:F
V:1 treble nm="Grand Piano"
V:1
 z A AA | A2 F2 | G2 GG- | G4- | G2 F2 | ED CD- | D4- | D4- | DA AA | A2 F2 | G2 GG- | G4- | %12
 G2 F2 | E2 DE- | E4- | E4- | EB BB | B2 G2 | A2 dA- | A4- | A2 _A2 | A2 =BA- | A4- | A4- | AG GG | %25
 G2 DE | F2 FF- | F2 A2 | GB AG | FE D^C | D4- | D2 AG | F2 FE | D2 A2 | B4 | G4 | c2 c2 | d2 G2 | %38
 A>B AG | FE FE | D2 DE | F2 D2 | G4 | G4 | A>B AG | FG FE | D4- | D z z2 |] %48

